X:1
T:The Red Cross Knight
T:John Wall  Callcott (1766-1821)
T:First published 1797 Poem from Thomas Evans' Old Ballads (1777)
T:The Red Cross Knight
T:Glee for 3 voices
C:John Wall  Callcott (1766-1821)
Z:First published 1797
Z:Poem from Thomas Evans' Old Ballads (1777)
%%score [ 1 2 3 ] { ( 4 6 ) | ( 5 7 ) }
L:1/8
M:4/4
K:F
V:1 treble nm="1st Treble"
V:2 treble nm="2nd Treble"
V:3 bass nm="Bass"
V:4 treble nm="Piano"
V:6 treble 
V:5 bass 
V:7 bass 
V:1
"^With animation" z8 |[Q:1/4=116] z8 | z8 | z8 | z8 | z8 | z4 z2!f! gf | e2 e2 d2 ee | f4 f4 | %9
w: ||||||in the|Ho- ly Land, and have|won the|
 e3 d c2 cc | e6 d2 | c3 d c2 z2 | z8 | z8 | z8 | z8 | z8 | z8 | z8 | z8 | z4 z2!p! AG | %21
w: vic- to- ry, and have|won the|vic- tor- y.|||||||||Let the|
 (Ff)(ec) (dA)BG | (Ff)(ec) (dA)!p!BG | F2 (FE) (FG)(A=B) | c3 d c2 cB | (Af)(cd) (AB)Gc | %26
w: mass _ be _ sung, _ And the|bells _ be _ rung, _ And the|feast, the _ feast _ eat _|mer- ri- ly, Let the|mass * be * sung, * And the|
 (Af)(cd) (AB)Gc | (AB)(cd) c2 e2 | f3 g f2 c2 | d4 !>!f4 | c>B A2 c>B A2 |!>(! c6!>)! B2 | A6 || %33
w: bells * be * rung, * And the|feast, _ the _ feast eat|mer- ri- ly, the|feast eat|mer- ri- ly, mer- ri- ly,|mer- ri-|ly.|
 F2 | E2 E2 G2 G>G | c2 c2 e2 z G | G2 G2 c2 e2 | g4 z2!f! g2 | g>g g2 f2 gf | e2 e2 d2 g2 | %40
w: The|war- der looked from his|tower on high, As|far as he could|see I|see a bold knight, and by|his red cross he|
 g2 fe e2 d2 | c4 z2!f! A2 | A6 A2 | A2 A2 A3 A | c4 z2 c2 | c3 c c2 c2 | f4 z2!f! a2 | %47
w: comes from the East coun-|try. Then|loud the|war- der blew his|horn, And|called 'till he was|hoarse, I|
 g>g g2 f2 gf | e2 e2 d2 g2 | g2 fe e2 d2 | c4 z4 | z8 | z8 | z8 | z8 | z8 | z8 | z8 | z8 | %59
w: see a bold knight, and on|his shield bright, he|bear- eth a flam- ing|cross.|||||||||
 z4 z2 G2 | A4 G4 | A2 (A>B) (c>d) (c>B) | A2 c2 f2 cc | (dc)(BA) (BA)(GF) | c4 z2 cB | %65
w: Thou'rt|wel- come|here, dear _ Red _ Cross _|Knight, dear Knight, For thy|fame's _ well _ known _ to _|me; And the|
 (Af)cd (AB)Gc | (Af)cd (AB)Gc | (AB)(cd) cc e2 | f3 g f2 cc | d4 !>!f4 | c>B A2 c>B A2 | %71
w: mass * shall be sung * And the|bells * shall be rung, * and we'll|* feast right * mer- ri- ly,|mer- ri- ly, And we'll|feast right|mer- ri- ly, mer- ri- ly,|
!>(! c6!>)! B2 | A8 || z8 | z8 | z8 | z8 | z8 | z8 | z8 | z8 | z8 | z8 | z8 | z8 | z8 | z8 | z8 | %88
w: mer- ri-|ly.||||||||||||||||
 z8 | z8 | z8 ||!p! c2 | c4 c4 | c2 c2 f2 f2 | c2 (c>B) A2 c2 | d2 d2 d2 (ef) |{f} e4 z2 g2 | %97
w: |||Thou'rt|wel- come|here, dear Red Cross|Knight, dear _ Knight come|lay thy ar- * mour|* and|
 gg g2 g3 f | e2 e2 d2 e2 | f4 f4 | e>d c2 e>d c2 | e6 d2 | c4 z2!f! c2 | f4 e3 e | %104
w: for the good ti- dings|thou dost bring we'll|feast us|mer- ri- ly, mer- ri- ly,|mer- ri-|ly, For|all in my|
 f2 c2 (c>d) (c>B) | A4 z2 c>c | f4 a4 | g3 f e2 ee | g6 f2 | e3 d c2 z2 | z8 | z8 | z8 | %113
w: cas- tle shall * re- *|joice, That we've|won the|vic- to- ry that we've|won the|vic- to- ry.||||
 z4 z2 AG | (Ff)ec (dA)BG | (Ff)ec (dA)BG | F2 (FE) (FG)(A=B) | c3 d c2!f! cB | (Af)cd (AB)Gc | %119
w: And the|mass _ shall be sung, _ and the|bells _ shall be rung, _ and the|feast, the _ feast _ eat _|mer- ri- ly And the|mass * shall be sung * and the|
 (Af)cd (AB)Gc | (AB)(cd) c2 e2 | f3 g f2 c2 | d4 !>!f4 | c>B A2 c>B A2 | c4- (c2 !fermata!TB>)A | %125
w: bells * shall be rung, * and the|feast, _ the _ feast eat|mer- ri- ly, the|feast eat|mer- ri- ly, mer- ri- ly,|mer- * * ri-|
 A8 | z6 |] %127
w: ly.||
V:2
 z8 | F4 C3 C | F2 (F>G) (A>B) (A>G) | F4 z2 AA | (GB)(Ac) (BG)(AF) | (A2 G2) z4 | z4 z2!f! GG | %7
w: |Blow, war- der!|blow thy _ soun- * ding _|horn, And thy|ban- * ner- * wave _ on _|high; _|in the|
 c2 c2 =B2 cc | c4 A4 | G3 F E2 EE | G6 F2 | E3 F E2 z2 |!f! F4 C3 C | F2 (F>G) (A>B) (A>G) | %14
w: Ho- ly Land, and have|won the|vic- to- ry, and have|won the|vic- tor- y.|Loud, loud the|war- der _ blew _ his _|
 F4 z2 AA | (GB)(Ac) (BG)(AF) | c4 z4 | z8 | z8 | z8 | z8 | z8 | z8 | z8 | E3 F E2 EG | %25
w: horn, And his|ban- * ner _ waved _ on _|high;||||||||mer- ri- ly, Let the|
 F2 (AB) F2 GG | F2 (AB) F2 GG | F3 B A2 G2 | A3 B A2 A2 | B4 !>!F4 | F>F F2 F>F F2 | %31
w: mass * be sung, And the|bells be * rung, And the|feast, the feast eat|mer- ri- ly, the|feast eat|mer- ri- ly, mer- ri- ly,|
!>(! A6!>)! G2 | F6 || z2 | z8 | z8 | z8 | z4 z2!f! e2 | e>e e2 d2 dd | c2 c2 =B2 d2 | %40
w: mer- ri-|ly.|||||I|see a bold knight, and by|his red cross he|
 e2 dc c2 =B2 | c4 z4 | z8 | z8 | z8 | z8 | z4 z2!f! f2 | e>e e2 d2 dd | c2 c2 =B2 d2 | %49
w: comes from the East coun-|try.|||||I|see a bold knight, and on|his shield bright, he|
 e2 dc c2 !courtesy!=B2 | c4 z2!mf! (cB) | A6 G2 | F2 ED ^C2 D2 | A4 z2 ^C2 | D2 E2 (FE)(FG) | %55
w: bear- eth a flam- ing|cross. Then _|down the|Lord of the cas- tle|came, the|Red Cross Knight _ to _|
 A4 z2 A2 | ^F2 D2 c2 (BA) | (GA)Bc d2 d2 | BB G2 D2 D2 | G4 z4 | z8 | z8 | z8 | z8 | z4 z2 GG | %65
w: meet, And|when the Red Cross _|Knight _ he es- pied, right|lov- ing he did him|greet.|||||And the|
 F2 AB F2 GG | F2 AB F2 GG | F2 F2 AA G2 | A3 B A2 AA | B4 !>!F4 | F>F F2 F>F F2 |!>(! A6!>)! G2 | %72
w: mass shall be sung And the|bells shall be rung, and we'll|feast right mer- ri- ly,|mer- ri- ly, And we'll|feast right|mer- ri- ly, mer- ri- ly,|mer- ri-|
 F8 || z8 | z8 | z8 | z8 | z8 | z8 | z8 | z8 | z8 | z8 | z8 | z8 | z8 | z8 | z8 | z8 | z8 | z8 || %91
w: ly.|||||||||||||||||||
!p! G2 | A4 G4 | A2 (A>B) (c>d) (c>B) | A2 (A>G) F2 A2 | (dc)(BA) (BA)(GF) | c4 z2 e2 | %97
w: Thou'rt|wel- come|here, dear * Red * Cross *|Knight, dear _ Knight come|lay _ thy _ ar- * mour _|by, and|
 de(dc) (=Bd)(cB) | c2 c2 =B2 c2 | c4 A4 | G>F E2 G>F E2 | G6 F2 | E4 z2!f! c2 | A4 B3 B | %104
w: for the good * ti- * dings *|thou dost bring we'll|feast us|mer- ri- ly, mer- ri- ly,|mer- ri-|ly, For|all in my|
 c2 A2 G2 E2 | F4 z2 A>B | c4 f4 | e3 d c2 cc | e6 d2 | c3 =B c2 z2 | z8 | z8 | z8 | z8 | z8 | z8 | %116
w: cas- tle shall re-|joice, That we've|won the|vic- to- ry that we've|won the|vic- to- ry.|||||||
 z2 D2 (DE)(FG) | E3 F E2!f! GG | F2 AB F2 GG | F2 AB F2 GG | F2 F2 A2 G2 | A3 B A2 A2 | B4 !>!F4 | %123
w: the feast _ eat _|mer- ri- ly And the|mass shall be sung and the|bells shall be rung, and the|feast the feast eat|mer- ri- ly, the|feast eat|
 F>F F2 F>F F2 | A4- (A2 !fermata!TG>)F | F8 | z6 |] %127
w: mer- ri- ly, mer- ri- ly,|mer- * * ri-|ly.||
V:3
 z8 | z8 | z8 | z8 | z8 | z4 z2!f! CC | (=B,C)B,A, (G,F,)!f!E,D, | (C,D,)(E,F,) G,2 CC | A,4 F,4 | %9
w: |||||For the|Christ- * ians have fought _ in the|Ho- * ly _ Land, and have|won the|
 C3 C C2 C,C, | G,6 G,,2 | C,3 C, C,2 z2 |!f! F,4 C,3 C, | F,2 (F,>G,) (A,>B,) (A,>G,) | %14
w: vic- to- ry, and have|won the|vic- tor- y.|Loud, loud, the|war- der _ blew _ his _|
 F,2 C,2 F,2 F,F, | C,2 F,2 E,2 F,2 | C,4 z2 A,>A, | D,2 G,2 F,2 E,>E, | D,2 G,2 F,2 E,>E, | %19
w: horn, his horn, And his|ban- ner waved on|high; Let the|mass be sung And the|bells be rung, And the|
 (D,>E,) (F,>G,) A,2 A,,2 | D,3 E, D,2 z2 | z8 | z4 z2!p! C,C, | D,2 D,2 D,2 D,2 | %24
w: feast, _ the _ feast eat|mer- ri- ly.||And the|feast, the feast eat|
 C,3 C, C,2 C,C, | F,2 F,2 F,2 E,E, | F,2 F,2 F,2 E,E, | (F,G,)(A,B,) C2 C,2 | F,3 F, F,2 F,2 | %29
w: mer- ri- ly, Let the|mass be sung, And the|bells be rung, And the|feast, _ the _ feast eat|mer- ri- ly, the|
 B,4 !>!D4 | A,>G, F,2 A,>G, F,2 |!>(! C,6!>)! C,2 | F,6 || z2 | z8 | z8 | z8 | z4 z2!f! C2 | %38
w: feast eat|mer- ri- ly, mer- ri- ly,|mer- ri-|ly.|||||I|
 C>C E,2 G,2 =B,,B,, | C,2 E,2 G,2 =B,2 | C2 F,F, G,2 G,,2 | C,4 z4 | z8 | z8 | z8 | z8 | %46
w: see a bold knight, and by|his red cross he|comes from the East coun-|try.|||||
 z4 z2!f! F,2 | C>C E,2 G,2 =B,,B,, | C,2 E,2 G,2 =B,2 | C2 F,F, G,2 G,,2 | C,4 z4 | z8 | z8 | z8 | %54
w: I|see a bold knight, and on|his shield bright, he|bear- eth a flam- ing|cross.||||
 z8 | z8 | z8 | z8 | z8 | z4 z2 C,2 | F,4 C,4 | F,2 (F,>G,) (A,>B,) (A,>G,) | F,4 z2 A,A, | %63
w: |||||Thou'rt|wel- come|here, dear _ Red _ Cross _|Knight, For thy|
 (B,A,)(G,F,) (G,F,)(E,D,) | C,4 z2 C,C, | F,2 F,F, F,2 E,E, | F,2 F,F, F,2 E,E, | %67
w: fame's _ well _ known _ to _|me; And the|mass shall be sung And the|bells shall be rung, and we'll|
 (F,G,)(A,B,) CC C,2 | F,3 F, F,2 F,F, | B,4 !>!D4 | A,>G, F,2 A,>G, F,2 |!>(! C,6!>)! C,2 | F,8 || %73
w: feast * right * mer- ri- ly,|mer- ri- ly, And we'll|feast right|mer- ri- ly, mer- ri- ly,|mer- ri-|ly.|
 F,4 E,2 A,2 | F,2 D,>D, B,2 A,2 | D4 z2 A,2 | B,4 G,4 | D,4 _E,4 | F,4 z2 B,2 | %79
w: Oh! I am|come from the Ho- ly|Land where|saints did|live and|die. Be-|
 (A,B,)A,G, (F,_E,)(D,C,) | (B,,C,)D,_E, (F,G,)(A,F,) | B,2 D,2 F,2 F,2 | B,,4 z2 D2 | %83
w: hold _ the de- vice _ I _|bear _ on my shield, _ the _|Red Cross Knight am|I, And|
 C2 A,2 D,2 C>C | B,2 G,2 C,2 B,>B, | A,4 F,4 | C3 =B, C2"^plus anime e forte" CC | %87
w: we have fought in the|Ho- ly Land and we've|won the|vic- to- ry, For with|
 (=B,C)(B,A,) (G,F,)E,D, | (C,D,)(E,F,) (G,A,)(=B,G,) | C>C E,2 G,2 G,2 | C,8 ||!p! C,2 | F,4 C,4 | %93
w: va- * liant * might, _ did the|Christ- * ians _ fight, _ and _|made the proud pa- gans|fly.|Thou'rt|wel- come|
 F,2 (F,>G,) (A,>B,) (A,>G,) | F,2 z2 z2 F,2 | (B,A,)(G,F,) (G,F,)(E,D,) | C,4 z2 C2 | %97
w: here, dear * Red * Cross *|Knight, come|lay _ thy _ ar- * mour _|by, and|
 =B,C(B,A,) (G,F,)(E,D,) | (C,D,)(E,F,) G,2 C2 | A,4 F,4 | C>C C2 C>C C2 | G,6 G,,2 | %102
w: for the good * ti- * dings *|thou * dost * bring we'll|feast us|mer- ri- ly, mer- ri- ly,|mer- ri-|
 C,4 z2!f! C2 | F,4 G,3 G, | A,2 F,2 E,2 C,2 | F,4 z2 F,>G, | A,4 F,4 | C3 C C2 C,C, | G,6 G,,2 | %109
w: ly, For|all in my|cas- tle shall re-|joice, That we've|won the|vic- to- ry that we've|won the|
 C,3 C, C,2!f! A,A, | D,2 G,>G, F,2 E,>E, | D,2 G,>G, F,2 E,>E, | (D,>E,) (F,>G,) A,A, A,,2 | %113
w: vic- to- ry. And the|mass shall be sung, and the|bells shall be rung, and the|feast _ eat _ mer- ri- ly,|
 D,3 E, D,2 z2 | z8 | z4 z2!p! C,C, | D,2 D,2 D,2 D,2 | C,3 C, C,2!f! C,C, | F,2 F,F, F,2 E,E, | %119
w: mer- ri- ly.||And the|feast, the feast eat|mer- ri- ly And the|mass shall be sung and the|
 F,2 F,F, F,2 E,E, | (F,G,)(A,B,) C2 C,2 | F,3 F, F,2 F,2 | B,4 !>!D4 | A,>G, F,2 A,>G, F,2 | %124
w: bells shall be rung, and the|feast, _ the _ feast eat|mer- ri- ly, the|feast eat|mer- ri- ly, mer- ri- ly,|
 C,4- C,2- !fermata!TC,>C, | F,8 | z6 |] %127
w: mer- * * ri-|ly.||
V:4
"^Accompaniment (added c. 1830) by John Addison (1766-1844)" [A,CF]8 | z8 | z8 | z4 z2 [FA]2 | %4
 [CG]2 [FA]2 [GB]2 A2 | ([FA]2 [EG]2) z4 | z4 z2!f! gf | [Gce]2 [Gce]2 [G=Bd]2 [Gce]2 | %8
 [Fcf]2 [Fcf]2 [Acf]2 [Acf]2 | [Ge]3 [Fd] [Ec]2 [Ec][Ec] | [Ec]2 [Ge]4 [Fd]2 | %11
 [Ec]3 [Fd] [Ec]2 z2 | z8 | z8 | z4 z2 [FA]2 | [EG]2 [FA]2 [GB]2 [FA]2 | %16
 [EG]2!mf! [ec']2 [ec']2 z2 | z2 (^c2 d2) z2 | z2 (^c2 d2) z2 | z2 A>G [DF]2 [^CE]2 | D3 E D2 z2 | %21
 z (fe)!wedge!c z (AB)!wedge!G | z (fe)!wedge!c z (AB)!wedge!G | F2 F2 FGA=B | %24
 [Ec]3 [Fd] [Ec]2 z2 |!mf! z .f'.e'.d' .c'.b.a.g | z .f'.e'.d' .c'.b.a.g | abc'd' [fac']2 [ge']2 | %28
 [af']2 f'/g'/a'/g'/ f'/e'/d'/c'/ b/a/g/f/ | [df]>[df] [dfd']2 [Bf]>[Bf] [Bfb]2 | Tf8 | %31
 z/ F/A/c/ f/A/c/f/ a/c/e/a/ c'/b/g/e/ | f2 [ca]2 [Af]2 || z2 | z8 | z8 | z8 | z4 z2!f! [eg]2 | %38
 [eg]>[eg] [cgc']2 [df]>[df] [dfd']2 | x4 x2 gf | ([ce][eg])([df][ce]) [ce]2 [=Bd]2 | [Ec]4 z4 | %42
 z8 | z8 | z8 | z8 | z4 z2!f! [fa]2 | [eg]>[eg] [cgc']2 [df]>[df] [dfd']2 | %48
 [ce]>[ce] [cg]>[ce] [=Bd]2 [dg]2 | [eg]2 [df][ce] [ce]2 [=Bd]2 | [Ec]6 z2 | z8 | z8 | z8 | z8 | %55
 z2 ^c'>d' e'2 z2 | z4!p! ^fagf | g2 [gd']2 [^fd']2 z2 | z2 [gd']2 [gb]2 [^fb]2 | [Bg]4 z4 | z8 | %61
 z8 | z8 | z8 | z8 |!mf! z .f'.e'.d' .c'.b.a.g | z .f'.e'.d' .c'.b.a.g | abc'd' [fac']2 [ge']2 | %68
 [af']2 f'/g'/a'/g'/ f'/e'/d'/c'/ b/a/g/f/ | [df]>[df] [dfd']2 [Bf]>[Bf] [Bfb]2 | Tf8 | %71
 z/ F/A/c/ f/A/c/f/ a/c/e/a/ c'/b/g/e/ | f2 [ca]2 [Af]2 z2 || z8 | z8 | z8 | B8 | [FB]4 c3 B | %78
 A4 z4 | z8 | z4 z2 [Fc]2 | [Fd]2 [Bd]2 [Bc]2 [Ac]2 | [Bd]4 z2 z2 | [Ad^f]6 z2 | [Gdg]4 z2 e2 | %85
 f4 a4 | [ceg]6 z2 |"^plus anime e f" [DFG]2 z2 z4 | [CEG]2 [CEG]2 [=B,DG]2 [Gd]2 | %89
 [Ge]2 g>f [ce]2 [=Bd]2 | [Ec]8 ||!p! [CG]2 | z2 c2 z2 c2 | [FA]4 f3 z | %94
 z2 ([ac']>[gb] [fa]2) [Fc]2 | dcBA BAGF | G4 z2 g2- | g8 | z8 | f/e/f/g/ .a z a/g/a/b/ .c' z | %100
 [eg]>[df] [ce]2 [eg]>[df] [ce]2 | z [ec']2 [ge'] [ge']2 [fd']2 |!f! [ec']4 z4 | %103
 z2 !arpeggio![FAcf]2 z2 !arpeggio![GBce]2 | x4 x2 c>B | [FA] z/ c'/ d'/c'/=b/c'/ f'2 c2 | %106
 [FAcf][FAcf]/[FAcf]/ [FAcf][FAcf] [Acfa][Acfa]/[Acfa]/ [Acfa][Acfa] | %107
 [ceg]2 [eg]>[df] [ce]2 [ce]>[ce] | [ce][ec']/[ec']/ [ec'][ec'] [ec']2 [db]2 | %109
 [ec']2 [ec']>[d=b] [ec']2 z2 | z2!>(! (^c2 d) a2!>)! g | f2!>)!!>(! (^c2 d) a2 g | f z a>g f2 e2 | %113
 d3 e d2 z2 |!p! z (fe)!wedge!c z (AB)!wedge!G | z (fe)!wedge!c z (AB)!wedge!G | F2 F2 FGA=B | %117
 [Ec]3 [Fd] [Ec]2!mf! z2 | z .f'.e'.d' .c'.b.a.g | z .f'.e'.d' .c'.b.a.g | %120
"^cres" abc'd' [fac']2 [ge']2 |!8va(! f2 f/g/a/g/ f/e/d/c/ B/A/G/!8va)!F,/ | %122
"^loco" [df]>[df] [dfd']2 [df]>[df] [dfd']2 | Tf8 | %124
 z/4 F/4A/4c/4f/4A/4c/4f/4 a/4c/4f/4a/4c'/4f/4a/4c'/4 !fermata!f'2 G/4B/4c/4e/4g/4b/4c'/4!fermata!e'/4 | %125
 g'/f'/e'/d'/ c'/b/a/g/ fe/d/ c/B/A/G/ | F2 [FAcf]2 [FAcf]2 |] %127
V:5
 [F,,F,]8 | z8 | z8 | z8 | z8 | z4 z2!f! C2 | =B,CB,A, G,F,E,D, | C,D,E,F, G,2 C2 | %8
 A,2 A,2 F,2 F,2 | C3 C C2 C,2 | G,4 A,,4 | C,2 C,,4 z2 |!f! F,4 C,4 | F,2 z2 A,2 z2 | %14
 F,2 !>![C,G,]2 A,2 x2 | C,2 F,2 E,2 F,2 | C,4 C,2 z2 | z2 G,2 F,2 z2 | z2 G,2 F,2 E,2 | %19
 D,>E, F,>G, A,2 A,,2 | D,4 z4 | z8 | z8 | D,2 D,2 D,2 D,2 | C,2 C,2 C,2 z2 | %25
 [A,C]3 B, [A,C] z [G,C-]2 | [A,C]3 B, [A,C] z [G,C]2 | F,G,A,B, C2 C,2 | %28
 [F,A,C]2 [F,A,C]2 [F,A,C]2 [F,A,C]2 | [B,,B,]2 [B,,B,]2 [D,D]2 [D,D]2 | %30
 [A,C]>[G,B,] [F,A,]2 [A,C]>[G,B,] [F,A,]2 | [C,C]2 [C,C]2 [C,C]2 [C,C]2 | %32
 [F,,F,]2 [F,,F,]2 [F,,F,]2 || z2 | z8 | z8 | z8 | z4 z2 [C,C]2 | %38
 [C,C]>[C,C] [E,,E,]2 [G,,G,]>[A,,A,] [=B,,,=B,,]2 | [C,,C,]2 [E,,E,]2 [G,,G,]2 [=B,,=B,]2 | %40
 [C,C]2 [F,,F,]2 [G,,G,]2 [G,,G,]2 | [C,C]4 z4 | A,8- | A,8 | C8- | C8 | F4 z2 F,2 | %47
 [C,C]>[C,C] [E,,E,]3 [G,,G,]2 [=B,,,=B,,] | [C,,C,]2 [E,,E,]2 [G,,G,]2 [=B,,=B,]2 | %49
 [C,C]2 [F,,F,]2 [G,,G,]2 [G,,G,]2 | [C,C]6 z2 | z8 | z8 | z2 !turn!^E,>F, G,2 z2 | z8 | z8 | %56
 z4[K:treble] c2 BA | GABc d2 d2 | B2 G2 D2 D2 | G4[K:bass] z2 G,2 | A,4 G,4 | A,2 A,2 C2 C2 | %62
 A,2 C2 F2 CC | DCB,A, B,A,G,F, | G,4 x4 | [A,C]3 B, [A,C] z [G,C-]2 | [A,C]3 B, [A,C] z [G,C]2 | %67
 F,G,A,B, C2 C,2 | [F,A,C]2 [F,A,C]2 [F,A,C]2 [F,A,C]2 | [B,,B,]2 [B,,B,]2 [D,D]2 [D,D]2 | %70
 [A,C]>[G,B,] [F,A,]2 [A,C]>[G,B,] [F,A,]2 | [C,F,A,C]2 [C,F,A,C]2 [C,F,A,C]2 [C,E,G,C]2 | %72
 [F,,F,]2 [F,,F,]2 [F,,F,]2 z2 || z8 | z8 | z8 | B,4 G,4 | D,4 _E,4 | F,4 z2 B,2 | %79
 A,B,A,G, F,_E,D,C, | B,,C,D,_E, F,G,A,F, | B,2 D,2 F,2 F,2 | B,,4 z2 D2 | C2 A,2 D,2 C2 | %84
 B,2 G,2 C,2 B,2 | A,4 F,4 | C3 =B, C2 C2 | =B,CB,A, G,F,E,D, | C,D,E,F, G,A,=B,G, | %89
 C2 E,2 G,2 G,2 | C,8 || C,2 | F,4 C,4 | F,2 [F,A,]2 [A,C]2 [A,C]>[G,B,] | [F,A,]2 z2 z2 A,2 | %95
 B,A,G,F, G,F,E,D, | C,4 z2 C2 | =B,CB,A, G,F,E,D, | C,D,E,F, G,2 C2 | [A,C]4 [F,C]4 | %100
 C2 C2 C2 C2 | G,2 G,2 G,2 G,,2 | C,2 [_B,,_B,]2 [A,,A,]2 [G,,G,]2 | [F,A,C]4 [G,B,C]4 | %104
 [A,C]2 [F,C]2 [E,C]2 [C,C]2 | [F,A,C]2[K:treble] [FA]2 [Ac]2[K:bass] F,>G, | %106
 [A,,A,][A,,A,]/[A,,A,]/ [A,,A,][A,,A,] [F,,F,][F,,F,]/[F,,F,]/ [F,,F,][F,,F,] | %107
 [C,C]2 [C,C]>[C,C] [C,C]2 [C,C]2 | [G,,G,]2 [G,,G,]2 [G,,G,]2 [G,,G,]2 | %109
 [C,,C,]2 [C,,C,]2 [C,,C,]2 A,2 | D,2 G,2 F,2 E,2 | D,2 G,2 F,2 E,2 | D,>E, F,>G, A,2 A,,2 | %113
 D,6 z2 | z8 | z4 z2 C,2 | D,2 D,2 D,2 D,2 | C,2 C,2 C,2 [E,G,C-]2 | [A,C]3 B, C2- [G,C]2 | %119
 [A,C]3 B, C2- [G,C]2 | F,G,A,B, C2 C,2 | [F,A,C]2 [F,A,C]2 [F,A,C]2 [F,A,C]2 | %122
 [B,,B,]2 [B,,B,]2 [D,D]2 [D,D]2 | [A,C]>[G,B,] [F,A,]2 [A,C]>[G,B,] [F,A,]2 | %124
"^Source is a version of this glee published c. 1830 by Goulding and D'Almaine (British Library Shelf Mark G.805(10)).All versions published during Calcott's lifetime seem to have been without accompaniment. Addison's is one among many.Some of the dynamics, e.g. \"plus anime e forte\" are unconventional. These have been left as is, since the meaning is clear." !fermata![F,A,C]6 !fermata![C,E,G,C]2 | %125
 [F,A,C]4- [F,A,C] z2 z | [F,,F,]2 [F,,F,]2 [F,,F,]2 |] %127
V:6
 x8 | x8 | x8 | x8 | x4 E2 F2 | C4 x4 | x4 x2 G2 | x8 | x8 | x8 | x8 | x8 | x8 | x8 | x8 | x8 | %16
 x8 | x2 !>!A4 x2 | x2 !>!A4 x2 | x8 | x8 | F2 G2 F2 E2 | F2 G2 F2[I:staff +1] C,2 | x8 | x8 | x8 | %26
 x8 | x8 | x8 | x8 | x8 | x8 | x6 || x2 | x8 | x8 | x8 | x8 | x8 | %39
[I:staff -1] [ce]>[ce] [cg]>[ce] [=Bd]2 d2 | x8 | x8 | x8 | x8 | x8 | x8 | x8 | x8 | x8 | x8 | x8 | %51
 x8 | x8 | x8 | x8 | x8 | z4 d4- | d2 x2 x4 | x8 | x8 | x8 | x8 | x8 | x8 | x8 | x8 | x8 | f4 x4 | %68
 x8 | x8 | x8 | x8 | x8 || x8 | x8 | x8 | (D4 _E4 | x4 G4 | F4) x4 | x8 | x8 | x8 | x8 | x8 | %84
 x4 x2 c2 | c8 | x8 | x8 | x8 | x2 c2 x4 | x8 || x2 | [CA]4 [EG]4 | x2 c2 z4 | x8 | D4- D2 EF | %96
 (F2 E2) x2 e2 | dedc =BdcB | x8 | x8 | x8 | x8 | x8 | x8 | [FAcf]2 [FAc]2 [Gc]2 E2 | x4 x2 A>B | %106
 x8 | x8 | x8 | x8 | z2 A4- A2- | A2 A6 | A x d2 d2 ^c2 | x8 | F2 G2 F2 E2 | F2 G2 F2 E2 | %116
 x4 x2 F2 | x8 | x8 | x8 | f4 x4 |!8va(! x15/2!8va)! x/ | x8 | x8 | x8 | x8 | x6 |] %127
V:7
 x8 | x8 | x8 | x8 | x8 | x8 | x8 | x8 | x8 | x8 | x8 | x8 | x8 | x8 | x4 F,2 F,2 | x8 | x8 | x8 | %18
 x8 | x8 | x8 | x8 | x8 | x8 | x8 | F,4 F,2 E,2 | F,4 F,2 E,2 | x8 | x8 | x8 | x8 | x8 | x6 || x2 | %34
 x8 | x8 | x8 | x8 | x8 | x8 | x8 | x8 | x8 | x8 | x8 | x8 | x8 | x8 | x8 | x8 | x8 | x8 | x8 | %53
 x8 | x8 | x8 | x4[K:treble] x4 | x8 | x8 | x4[K:bass] x2 C,2 | F,4 C,4 | F,2 F,2 A,2 A,2 | %62
 F,2 F,2 A,2 A,A, | B,A,G,F, G,F,E,D, | C,4 z2 [E,G,C]2 | F,6 E,2 | F,6 E,2 | x8 | x8 | x8 | x8 | %71
 x8 | x8 || x8 | x8 | x8 | x8 | x8 | x8 | x8 | x8 | x8 | x8 | x8 | x8 | x8 | x8 | x8 | x8 | x8 | %90
 x8 || x2 | x8 | x8 | x8 | x8 | x8 | x8 | x8 | x8 | x8 | x8 | x8 | x8 | x8 | %105
 x2[K:treble] x4[K:bass] x2 | x8 | x8 | x8 | x8 | x8 | x8 | x8 | x8 | x8 | x8 | x8 | x8 | %118
 F,4- F,2 E,2 | F,4- F,2 E,2 | x8 | x8 | x8 | x8 | x8 | x8 | x6 |] %127

